public/ecosystem/trpc.svg

<svg fill="none" height="512" viewBox="0 0 512 512" width="512" xmlns="http://www.w3.org/2000/svg"><rect fill="#398ccb" height="512" rx="150" width="512"/><path clip-rule="evenodd" d="m255.446 75 71.077 41.008v22.548l86.031 49.682v84.986l23.077 13.322v82.062l-71.031 41.007-31.535-18.237-76.673 44.268-76.214-44.012-31.093 17.981-71.0312-41.077v-81.992l22.1772-12.803v-85.505l84.184-48.6.047-.002v-23.628zm71.077 84.879v38.144l-71.031 41.008-71.03-41.008v-37.087l-.047.002-65.723 37.962v64.184l30.393-17.546 71.03 41.008v81.992l-21.489 12.427 57.766 33.358 58.226-33.611-21.049-12.174v-81.992l71.031-41.008 29.492 17.027v-63.665zm-14.492 198.09v-50.054l43.338 25.016v50.054zm105.138-50.123-43.338 25.016v50.123l43.338-25.085zm-320.6536 50.054v-50.054l43.3386 25.016v50.053zm105.1386-50.054-43.339 25.016v50.053l43.339-25.015zm119.608-15.923 43.338-25.015 43.338 25.015-43.338 25.039zm-172.177-25.085-43.339 25.085 43.339 24.969 43.338-24.969zm53.838-79.476v-50.054l43.292 25.038v50.031zm105.092-50.054-43.292 25.038v50.008l43.292-24.992zm-95.861-15.97 43.292-25.0149 43.339 25.0149-43.339 25.016z" fill="#fff" fill-rule="evenodd"/></svg>

<svg width="512" height="512" viewBox="0 0 512 512" fill="none" xmlns="http://www.w3.org/2000/svg">
<rect width="512" height="512" rx="150" fill="#398CCB"/>
<path fill-rule="evenodd" clip-rule="evenodd" d="M255.446 75L326.523 116.008V138.556L412.554 188.238V273.224L435.631 286.546V368.608L364.6 409.615L333.065 391.378L256.392 435.646L180.178 391.634L149.085 409.615L78.0538 368.538V286.546L100.231 273.743V188.238L184.415 139.638L184.462 139.636V116.008L255.446 75ZM326.523 159.879V198.023L255.492 239.031L184.462 198.023V160.936L184.415 160.938L118.692 198.9V263.084L149.085 245.538L220.115 286.546V368.538L198.626 380.965L256.392 414.323L314.618 380.712L293.569 368.538V286.546L364.6 245.538L394.092 262.565V198.9L326.523 159.879ZM312.031 357.969V307.915L355.369 332.931V382.985L312.031 357.969ZM417.169 307.846L373.831 332.862V382.985L417.169 357.9V307.846ZM96.5154 357.9V307.846L139.854 332.862V382.915L96.5154 357.9ZM201.654 307.846L158.315 332.862V382.915L201.654 357.9V307.846ZM321.262 291.923L364.6 266.908L407.938 291.923L364.6 316.962L321.262 291.923ZM149.085 266.838L105.746 291.923L149.085 316.892L192.423 291.923L149.085 266.838ZM202.923 187.362V137.308L246.215 162.346V212.377L202.923 187.362ZM308.015 137.308L264.723 162.346V212.354L308.015 187.362V137.308ZM212.154 121.338L255.446 96.3231L298.785 121.338L255.446 146.354L212.154 121.338Z" fill="white"/>
</svg>
